static/img/kroki/eed4c42dc42a56945bce7095ed4f674c.svg

<?xml version="1.0" encoding="us-ascii" standalone="no"?><svg xmlns="http://www.w3.org/2000/svg" xmlns:xlink="http://www.w3.org/1999/xlink" contentStyleType="text/css" height="943px" preserveAspectRatio="none" style="width:266px;height:943px;" version="1.1" viewBox="0 0 266 943" width="266px" zoomAndPan="magnify"><defs/><g><!--class azure_nat_gateway--><g id="elem_azure_nat_gateway"><rect codeLine="22" fill="#3D176E" height="337.0547" id="azure_nat_gateway" rx="2.5" ry="2.5" style="stroke:#000D19;stroke-width:0.5;" width="252" x="7" y="599.55"/><ellipse cx="42.7" cy="619.4445" fill="#ADD1B2" rx="11" ry="11" style="stroke:#181818;stroke-width:1.0;"/><path d="M45.6688,625.0852 Q45.0906,625.382 44.45,625.5227 Q43.8094,625.6789 43.1063,625.6789 Q40.6063,625.6789 39.2781,624.0383 Q37.9656,622.382 37.9656,619.257 Q37.9656,616.132 39.2781,614.4758 Q40.6063,612.8195 43.1063,612.8195 Q43.8094,612.8195 44.45,612.9758 Q45.1063,613.132 45.6688,613.4289 L45.6688,616.1477 Q45.0438,615.5695 44.45,615.3039 Q43.8563,615.0227 43.2313,615.0227 Q41.8875,615.0227 41.2,616.1008 Q40.5125,617.1633 40.5125,619.257 Q40.5125,621.3508 41.2,622.4289 Q41.8875,623.4914 43.2313,623.4914 Q43.8563,623.4914 44.45,623.2258 Q45.0438,622.9445 45.6688,622.3664 L45.6688,625.0852 Z " fill="#000000"/><text fill="#D9B8FF" font-family="Helvetica" font-size="17" lengthAdjust="spacing" textLength="164" x="66.3" y="625.3298">azure_nat_gateway</text><line style="stroke:#000D19;stroke-width:0.5;" x1="8" x2="258" y1="639.3391" y2="639.3391"/><text fill="#D9B8FF" font-family="sans-serif" font-size="14" font-weight="bold" lengthAdjust="spacing" textLength="35" x="18" y="661.3342">etag</text><text fill="#D9B8FF" font-family="sans-serif" font-size="14" lengthAdjust="spacing" textLength="48" x="53" y="661.3342">: string</text><text fill="#D9B8FF" font-family="sans-serif" font-size="14" font-weight="bold" lengthAdjust="spacing" textLength="186" x="18" y="687.6311">idle_timeout_in_minutes</text><text fill="#D9B8FF" font-family="sans-serif" font-size="14" lengthAdjust="spacing" textLength="44" x="204" y="687.6311">: int64</text><text fill="#D9B8FF" font-family="sans-serif" font-size="14" font-weight="bold" lengthAdjust="spacing" textLength="62" x="18" y="713.9279">location</text><text fill="#D9B8FF" font-family="sans-serif" font-size="14" lengthAdjust="spacing" textLength="48" x="80" y="713.9279">: string</text><text fill="#D9B8FF" font-family="sans-serif" font-size="14" font-weight="bold" lengthAdjust="spacing" textLength="144" x="18" y="740.2248">provisioning_state</text><text fill="#D9B8FF" font-family="sans-serif" font-size="14" lengthAdjust="spacing" textLength="48" x="162" y="740.2248">: string</text><text fill="#D9B8FF" font-family="sans-serif" font-size="14" font-weight="bold" lengthAdjust="spacing" textLength="158" x="18" y="766.5217">public_ip_addresses</text><text fill="#D9B8FF" font-family="sans-serif" font-size="14" lengthAdjust="spacing" textLength="58" x="176" y="766.5217">: string[]</text><text fill="#D9B8FF" font-family="sans-serif" font-size="14" font-weight="bold" lengthAdjust="spacing" textLength="140" x="18" y="792.8186">public_ip_prefixes</text><text fill="#D9B8FF" font-family="sans-serif" font-size="14" lengthAdjust="spacing" textLength="58" x="158" y="792.8186">: string[]</text><text fill="#D9B8FF" font-family="sans-serif" font-size="14" font-weight="bold" lengthAdjust="spacing" textLength="113" x="18" y="819.1154">resource_guid</text><text fill="#D9B8FF" font-family="sans-serif" font-size="14" lengthAdjust="spacing" textLength="48" x="131" y="819.1154">: string</text><text fill="#D9B8FF" font-family="sans-serif" font-size="14" font-weight="bold" lengthAdjust="spacing" textLength="28" x="18" y="845.4123">sku</text><text fill="#D9B8FF" font-family="sans-serif" font-size="14" lengthAdjust="spacing" textLength="48" x="46" y="845.4123">: string</text><text fill="#D9B8FF" font-family="sans-serif" font-size="14" font-weight="bold" lengthAdjust="spacing" textLength="85" x="18" y="871.7092">subnet_ids</text><text fill="#D9B8FF" font-family="sans-serif" font-size="14" lengthAdjust="spacing" textLength="58" x="103" y="871.7092">: string[]</text><text fill="#D9B8FF" font-family="sans-serif" font-size="14" font-weight="bold" lengthAdjust="spacing" textLength="35" x="18" y="898.0061">type</text><text fill="#D9B8FF" font-family="sans-serif" font-size="14" lengthAdjust="spacing" textLength="48" x="53" y="898.0061">: string</text><text fill="#D9B8FF" font-family="sans-serif" font-size="14" font-weight="bold" lengthAdjust="spacing" textLength="48" x="18" y="924.3029">zones</text><text fill="#D9B8FF" font-family="sans-serif" font-size="14" lengthAdjust="spacing" textLength="58" x="66" y="924.3029">: string[]</text></g><!--class azure_resource--><g id="elem_azure_resource"><rect codeLine="35" fill="#3D176E" height="39.7891" id="azure_resource" rx="2.5" ry="2.5" style="stroke:#000D19;stroke-width:0.5;" width="168" x="49" y="438.76"/><ellipse cx="64" cy="458.6545" fill="#ADD1B2" rx="11" ry="11" style="stroke:#181818;stroke-width:1.0;"/><path d="M66.9688,464.2952 Q66.3906,464.592 65.75,464.7327 Q65.1094,464.8889 64.4063,464.8889 Q61.9063,464.8889 60.5781,463.2483 Q59.2656,461.592 59.2656,458.467 Q59.2656,455.342 60.5781,453.6858 Q61.9063,452.0295 64.4063,452.0295 Q65.1094,452.0295 65.75,452.1858 Q66.4063,452.342 66.9688,452.6389 L66.9688,455.3577 Q66.3438,454.7795 65.75,454.5139 Q65.1563,454.2327 64.5313,454.2327 Q63.1875,454.2327 62.5,455.3108 Q61.8125,456.3733 61.8125,458.467 Q61.8125,460.5608 62.5,461.6389 Q63.1875,462.7014 64.5313,462.7014 Q65.1563,462.7014 65.75,462.4358 Q66.3438,462.1545 66.9688,461.5764 L66.9688,464.2952 Z " fill="#000000"/><text fill="#D9B8FF" font-family="Helvetica" font-size="17" lengthAdjust="spacing" textLength="126" x="83" y="464.5398">azure_resource</text></g><!--class resource--><g id="elem_resource"><rect codeLine="37" fill="#3D176E" height="310.7578" id="resource" rx="2.5" ry="2.5" style="stroke:#000D19;stroke-width:0.5;" width="227" x="19.5" y="7"/><ellipse cx="88.25" cy="26.8945" fill="#ADD1B2" rx="11" ry="11" style="stroke:#181818;stroke-width:1.0;"/><path d="M91.2188,32.5352 Q90.6406,32.832 90,32.9727 Q89.3594,33.1289 88.6563,33.1289 Q86.1563,33.1289 84.8281,31.4883 Q83.5156,29.832 83.5156,26.707 Q83.5156,23.582 84.8281,21.9258 Q86.1563,20.2695 88.6563,20.2695 Q89.3594,20.2695 90,20.4258 Q90.6563,20.582 91.2188,20.8789 L91.2188,23.5977 Q90.5938,23.0195 90,22.7539 Q89.4063,22.4727 88.7813,22.4727 Q87.4375,22.4727 86.75,23.5508 Q86.0625,24.6133 86.0625,26.707 Q86.0625,28.8008 86.75,29.8789 Q87.4375,30.9414 88.7813,30.9414 Q89.4063,30.9414 90,30.6758 Q90.5938,30.3945 91.2188,29.8164 L91.2188,32.5352 Z " fill="#000000"/><text fill="#D9B8FF" font-family="Helvetica" font-size="17" lengthAdjust="spacing" textLength="71" x="113.75" y="32.7798">resource</text><line style="stroke:#000D19;stroke-width:0.5;" x1="20.5" x2="245.5" y1="46.7891" y2="46.7891"/><text fill="#D9B8FF" font-family="sans-serif" font-size="14" font-weight="bold" lengthAdjust="spacing" textLength="29" x="30.5" y="68.7842">age</text><text fill="#D9B8FF" font-family="sans-serif" font-size="14" lengthAdjust="spacing" textLength="66" x="59.5" y="68.7842">: duration</text><text fill="#D9B8FF" font-family="sans-serif" font-size="14" font-weight="bold" lengthAdjust="spacing" textLength="43" x="30.5" y="95.0811">atime</text><text fill="#D9B8FF" font-family="sans-serif" font-size="14" lengthAdjust="spacing" textLength="70" x="73.5" y="95.0811">: datetime</text><text fill="#D9B8FF" font-family="sans-serif" font-size="14" font-weight="bold" lengthAdjust="spacing" textLength="43" x="30.5" y="121.3779">ctime</text><text fill="#D9B8FF" font-family="sans-serif" font-size="14" lengthAdjust="spacing" textLength="70" x="73.5" y="121.3779">: datetime</text><text fill="#D9B8FF" font-family="sans-serif" font-size="14" font-weight="bold" lengthAdjust="spacing" textLength="14" x="30.5" y="147.6748">id</text><text fill="#D9B8FF" font-family="sans-serif" font-size="14" lengthAdjust="spacing" textLength="48" x="44.5" y="147.6748">: string</text><text fill="#D9B8FF" font-family="sans-serif" font-size="14" font-weight="bold" lengthAdjust="spacing" textLength="33" x="30.5" y="173.9717">kind</text><text fill="#D9B8FF" font-family="sans-serif" font-size="14" lengthAdjust="spacing" textLength="48" x="63.5" y="173.9717">: string</text><text fill="#D9B8FF" font-family="sans-serif" font-size="14" font-weight="bold" lengthAdjust="spacing" textLength="90" x="30.5" y="200.2686">last_access</text><text fill="#D9B8FF" font-family="sans-serif" font-size="14" lengthAdjust="spacing" textLength="66" x="120.5" y="200.2686">: duration</text><text fill="#D9B8FF" font-family="sans-serif" font-size="14" font-weight="bold" lengthAdjust="spacing" textLength="90" x="30.5" y="226.5654">last_update</text><text fill="#D9B8FF" font-family="sans-serif" font-size="14" lengthAdjust="spacing" textLength="66" x="120.5" y="226.5654">: duration</text><text fill="#D9B8FF" font-family="sans-serif" font-size="14" font-weight="bold" lengthAdjust="spacing" textLength="48" x="30.5" y="252.8623">mtime</text><text fill="#D9B8FF" font-family="sans-serif" font-size="14" lengthAdjust="spacing" textLength="70" x="78.5" y="252.8623">: datetime</text><text fill="#D9B8FF" font-family="sans-serif" font-size="14" font-weight="bold" lengthAdjust="spacing" textLength="43" x="30.5" y="279.1592">name</text><text fill="#D9B8FF" font-family="sans-serif" font-size="14" lengthAdjust="spacing" textLength="48" x="73.5" y="279.1592">: string</text><text fill="#D9B8FF" font-family="sans-serif" font-size="14" font-weight="bold" lengthAdjust="spacing" textLength="34" x="30.5" y="305.4561">tags</text><text fill="#D9B8FF" font-family="sans-serif" font-size="14" lengthAdjust="spacing" textLength="171" x="64.5" y="305.4561">: dictionary[string, string]</text></g><!--reverse link azure_resource to azure_nat_gateway--><g id="link_azure_resource_azure_nat_gateway"><path codeLine="49" d="M133,496.88 C133,522.05 133,550.71 133,599.26 " fill="none" id="azure_resource-backto-azure_nat_gateway" style="stroke:#FFAF37;stroke-width:2.0;"/><polygon fill="none" points="133,478.88,127,496.88,139,496.88,133,478.88" style="stroke:#FFAF37;stroke-width:2.0;"/></g><!--reverse link resource to azure_resource--><g id="link_resource_azure_resource"><path codeLine="50" d="M133,335.84 C133,384.13 133,413.36 133,438.67 " fill="none" id="resource-backto-azure_resource" style="stroke:#FFAF37;stroke-width:2.0;"/><polygon fill="none" points="133,317.84,127,335.84,139,335.84,133,317.84" style="stroke:#FFAF37;stroke-width:2.0;"/></g><!--SRC=[XP9VRzCm5CNV-oaixIsYKijWNH4lenA2bmantYPatTWtgTN4ZgxjbHRuxjX9YsAdszxYStw-VqwyLH8Pjfqxi1RR4idEx4xf3WXQTaTazXlJ669NLGNLzIetFnljNWNkeKNs1PidT4f0JlpOAh7JQ2rxEx8-WTZLPBoMGtb7e6smKBiHjMd0sZldI9NUuMWOkIvlgoedyw9NrtAvki49PaWYdP35OY6NwnnvjTMBU_yd7jGHsN8SshrnE1bpqgAdNfmo4gCX9ukU_MTd_0PIAbspzoFj-p0JQQH4VzY2DFj8Lz3OSHlhaD2uGuURoLQulfNLwYByzJbOnEGO73qXr-1u3GxtS62_PqM13kgY-13AK1Wb24eso9rgqNZ7bUQjqk6LsCWexMxU1QGn0fmoEhdNaNbIDgZXoAqBBLBRbuqIN7KyH4JXuGub1__nPq9qX9NwDG72BUD98A-zaabnk_FfsPSQm_GoBn5ZIiYZqLcVlqbSvvuXgxCnaee2whwUzDGd4fMONQ-52E9tqCG5BLiX_CzK2BqS1o52L5c7tl6TF4KySjeBVJIqwShXXmyLbOZNW0wFW_VcnCGCikq__fdFvzCNDBi8dCL_]--></g></svg>

<svg xmlns="http://www.w3.org/2000/svg" width="266" height="943" viewBox="0 0 266 943"><rect width="252" height="337.055" x="7" y="599.55" fill="#3D176E" rx="2.5" ry="2.5" style="stroke:#000d19;stroke-width:.5"/><circle cx="42.7" cy="619.444" r="11" fill="#ADD1B2" style="stroke:#181818;stroke-width:1"/><path d="M45.669 625.085q-.578.297-1.219.438-.64.156-1.344.156-2.5 0-3.828-1.64-1.312-1.657-1.312-4.782t1.312-4.781q1.328-1.657 3.828-1.657.703 0 1.344.157.656.156 1.219.453v2.719q-.625-.579-1.219-.844-.594-.281-1.219-.281-1.343 0-2.031 1.078-.687 1.062-.687 3.156t.687 3.172q.688 1.062 2.031 1.062.625 0 1.219-.265.594-.282 1.219-.86z"/><text x="66.3" y="625.33" fill="#D9B8FF" font-family="Helvetica" font-size="17" textLength="164">azure_nat_gateway</text><path d="M8 639.339h250" style="stroke:#000d19;stroke-width:.5"/><text x="18" y="661.334" fill="#D9B8FF" font-family="sans-serif" font-size="14" font-weight="bold" textLength="35">etag</text><text x="53" y="661.334" fill="#D9B8FF" font-family="sans-serif" font-size="14" textLength="48">: string</text><text x="18" y="687.631" fill="#D9B8FF" font-family="sans-serif" font-size="14" font-weight="bold" textLength="186">idle_timeout_in_minutes</text><text x="204" y="687.631" fill="#D9B8FF" font-family="sans-serif" font-size="14" textLength="44">: int64</text><text x="18" y="713.928" fill="#D9B8FF" font-family="sans-serif" font-size="14" font-weight="bold" textLength="62">location</text><text x="80" y="713.928" fill="#D9B8FF" font-family="sans-serif" font-size="14" textLength="48">: string</text><text x="18" y="740.225" fill="#D9B8FF" font-family="sans-serif" font-size="14" font-weight="bold" textLength="144">provisioning_state</text><text x="162" y="740.225" fill="#D9B8FF" font-family="sans-serif" font-size="14" textLength="48">: string</text><text x="18" y="766.522" fill="#D9B8FF" font-family="sans-serif" font-size="14" font-weight="bold" textLength="158">public_ip_addresses</text><text x="176" y="766.522" fill="#D9B8FF" font-family="sans-serif" font-size="14" textLength="58">: string[]</text><text x="18" y="792.819" fill="#D9B8FF" font-family="sans-serif" font-size="14" font-weight="bold" textLength="140">public_ip_prefixes</text><text x="158" y="792.819" fill="#D9B8FF" font-family="sans-serif" font-size="14" textLength="58">: string[]</text><text x="18" y="819.115" fill="#D9B8FF" font-family="sans-serif" font-size="14" font-weight="bold" textLength="113">resource_guid</text><text x="131" y="819.115" fill="#D9B8FF" font-family="sans-serif" font-size="14" textLength="48">: string</text><text x="18" y="845.412" fill="#D9B8FF" font-family="sans-serif" font-size="14" font-weight="bold" textLength="28">sku</text><text x="46" y="845.412" fill="#D9B8FF" font-family="sans-serif" font-size="14" textLength="48">: string</text><text x="18" y="871.709" fill="#D9B8FF" font-family="sans-serif" font-size="14" font-weight="bold" textLength="85">subnet_ids</text><text x="103" y="871.709" fill="#D9B8FF" font-family="sans-serif" font-size="14" textLength="58">: string[]</text><text x="18" y="898.006" fill="#D9B8FF" font-family="sans-serif" font-size="14" font-weight="bold" textLength="35">type</text><text x="53" y="898.006" fill="#D9B8FF" font-family="sans-serif" font-size="14" textLength="48">: string</text><text x="18" y="924.303" fill="#D9B8FF" font-family="sans-serif" font-size="14" font-weight="bold" textLength="48">zones</text><text x="66" y="924.303" fill="#D9B8FF" font-family="sans-serif" font-size="14" textLength="58">: string[]</text><rect width="168" height="39.789" x="49" y="438.76" fill="#3D176E" rx="2.5" ry="2.5" style="stroke:#000d19;stroke-width:.5"/><circle cx="64" cy="458.654" r="11" fill="#ADD1B2" style="stroke:#181818;stroke-width:1"/><path d="M66.969 464.295q-.578.297-1.219.438-.64.156-1.344.156-2.5 0-3.828-1.64-1.312-1.657-1.312-4.782t1.312-4.781q1.328-1.656 3.828-1.656.703 0 1.344.156.656.156 1.219.453v2.719q-.625-.579-1.219-.844-.594-.281-1.219-.281-1.344 0-2.031 1.078-.687 1.062-.687 3.156t.687 3.172q.688 1.062 2.031 1.062.625 0 1.219-.265.594-.281 1.219-.86z"/><text x="83" y="464.54" fill="#D9B8FF" font-family="Helvetica" font-size="17" textLength="126">azure_resource</text><rect width="227" height="310.758" x="19.5" y="7" fill="#3D176E" rx="2.5" ry="2.5" style="stroke:#000d19;stroke-width:.5"/><circle cx="88.25" cy="26.895" r="11" fill="#ADD1B2" style="stroke:#181818;stroke-width:1"/><path d="M91.219 32.535q-.578.297-1.219.438-.64.156-1.344.156-2.5 0-3.828-1.64-1.312-1.657-1.312-4.782t1.312-4.781q1.328-1.656 3.828-1.656.703 0 1.344.156.656.156 1.219.453v2.719q-.625-.578-1.219-.844-.594-.281-1.219-.281-1.344 0-2.031 1.078-.687 1.062-.687 3.156t.687 3.172q.688 1.062 2.031 1.062.625 0 1.219-.265.594-.281 1.219-.86z"/><text x="113.75" y="32.78" fill="#D9B8FF" font-family="Helvetica" font-size="17" textLength="71">resource</text><path d="M20.5 46.789h225" style="stroke:#000d19;stroke-width:.5"/><text x="30.5" y="68.784" fill="#D9B8FF" font-family="sans-serif" font-size="14" font-weight="bold" textLength="29">age</text><text x="59.5" y="68.784" fill="#D9B8FF" font-family="sans-serif" font-size="14" textLength="66">: duration</text><text x="30.5" y="95.081" fill="#D9B8FF" font-family="sans-serif" font-size="14" font-weight="bold" textLength="43">atime</text><text x="73.5" y="95.081" fill="#D9B8FF" font-family="sans-serif" font-size="14" textLength="70">: datetime</text><text x="30.5" y="121.378" fill="#D9B8FF" font-family="sans-serif" font-size="14" font-weight="bold" textLength="43">ctime</text><text x="73.5" y="121.378" fill="#D9B8FF" font-family="sans-serif" font-size="14" textLength="70">: datetime</text><text x="30.5" y="147.675" fill="#D9B8FF" font-family="sans-serif" font-size="14" font-weight="bold" textLength="14">id</text><text x="44.5" y="147.675" fill="#D9B8FF" font-family="sans-serif" font-size="14" textLength="48">: string</text><text x="30.5" y="173.972" fill="#D9B8FF" font-family="sans-serif" font-size="14" font-weight="bold" textLength="33">kind</text><text x="63.5" y="173.972" fill="#D9B8FF" font-family="sans-serif" font-size="14" textLength="48">: string</text><text x="30.5" y="200.269" fill="#D9B8FF" font-family="sans-serif" font-size="14" font-weight="bold" textLength="90">last_access</text><text x="120.5" y="200.269" fill="#D9B8FF" font-family="sans-serif" font-size="14" textLength="66">: duration</text><text x="30.5" y="226.565" fill="#D9B8FF" font-family="sans-serif" font-size="14" font-weight="bold" textLength="90">last_update</text><text x="120.5" y="226.565" fill="#D9B8FF" font-family="sans-serif" font-size="14" textLength="66">: duration</text><text x="30.5" y="252.862" fill="#D9B8FF" font-family="sans-serif" font-size="14" font-weight="bold" textLength="48">mtime</text><text x="78.5" y="252.862" fill="#D9B8FF" font-family="sans-serif" font-size="14" textLength="70">: datetime</text><text x="30.5" y="279.159" fill="#D9B8FF" font-family="sans-serif" font-size="14" font-weight="bold" textLength="43">name</text><text x="73.5" y="279.159" fill="#D9B8FF" font-family="sans-serif" font-size="14" textLength="48">: string</text><text x="30.5" y="305.456" fill="#D9B8FF" font-family="sans-serif" font-size="14" font-weight="bold" textLength="34">tags</text><text x="64.5" y="305.456" fill="#D9B8FF" font-family="sans-serif" font-size="14" textLength="171">: dictionary[string, string]</text><path fill="none" d="M133 496.88v102.38m0-120.38-6 18h12zm0-143.04v102.83m0-120.83-6 18h12z" style="stroke:#ffaf37;stroke-width:2"/></svg>
